images/logo.svg

<svg width="138" height="70" viewBox="0 0 138 70" fill="none" xmlns="http://www.w3.org/2000/svg">
<g clip-path="url(#clip0_18711_905)">
<path d="M138 0H0L59.5 65.7C64.7 71.5 73.3 71.5 78.5 65.7L138 0Z" fill="#81B3D3"/>
<path d="M36.7 0.5L68.8 38.4L100.8 0.7L36.7 0.5Z" fill="#23A9E1"/>
<path d="M61.1001 14.6999H78.4001C77.1001 13.8999 74.0001 10.0999 72.4001 11.4999C72.3001 11.5999 67.5001 5.79992 64.4001 8.59992C61.7001 11.0999 60.4001 8.29992 57.4001 10.1999C53.8001 12.5999 59.4001 13.8999 61.1001 14.6999ZM87.8001 11.1999L78.0001 11.2999C81.9001 6.79992 83.6001 7.29992 87.8001 11.1999Z" fill="white"/>
<path d="M97.6 3.6V1.2H99.7L97.6 3.6ZM48.4 13C48.5 13.1 50.8 10.6 54.5 8.1C57.9 5.8 63.1 3.2 68.9 3.2C74.7 3.2 80 5.9 83.4 8.2C87.1 10.6 89.4 13 89.5 13.1L87 16.1C82.5 16.7 79.3 20 74.9 19.3C72.7 18.9 72.6 17.7 72 16.4C71.5 15.4 70.7 15.6 69.7 15.2C68.8 14.8 68.2 14.1 66.3 14.5C64.7 14.9 64.5 17.4 62.4 17.3C61.3 17.2 61.2 15.7 59.6 13.7C55.5 8.8 51.7606 9.41045 49.1606 13.9104L48.4 13ZM40 1.2V3.1L38.4 1.2H40ZM93.9 1.2H97.1V4.2L93.9 8V1.2ZM89.8 12.6V1.2H93.3V8.6L89.8 12.6ZM89.3 2.2V12.1C88.2 11 87 10 85.7 9.1L89.3 2.2ZM85.2 1.9V8.7C84.7 8.4 84.3 8 83.7 7.7C83 7.3 82.3 6.8 81.5 6.4L85.2 1.9ZM80.8 1.7V6C79.8 5.5 78.7 5 77.7 4.5L80.8 1.7ZM81.4 1.2H85.1L81.4 5.8V1.2ZM85.7 1.2H89.3L85.7 8.3V1.2ZM76.9 1.2H80.8L77.3 4.3C77.2 4.3 77.1 4.2 77 4.2L76.9 1.2ZM76.4 1.6V4C75.4 3.6 74.4 3.3 73.3 3.1L76.4 1.6ZM72.2 1.6V2.9C71.5 2.8 70.8 2.7 70 2.6L72.2 1.6ZM65.4 1.6L67.6 2.6C66.8 2.6 66.1 2.7 65.4 2.9V1.6ZM61.3 1.6L64.4 3.1C63.3 3.3 62.3 3.6 61.3 4V1.6ZM64.9 2.8L61.6 1.2H64.9V2.8ZM68.4 2.4L65.6 1.1H68.4V2.4ZM69.1 1.2H72L69.1 2.5V1.2ZM72.8 1.2H76L72.8 2.8V1.2ZM60.4 4.3L56.9 1.2H60.8V4.2L60.4 4.3ZM56.8 1.7L59.9 4.4C58.8 4.8 57.8 5.3 56.8 5.9V1.7ZM52.5 1.9L56.1 6.4C54.8 7.1 53.6 7.9 52.5 8.8V1.9ZM48.3 2.2L51.9 9.2C50.6 10.2 49.4 11.2 48.3 12.4V2.2ZM52 8.2L48.4 1.1H52V8.2ZM56.3 5.7L52.6 1.1H56.3V5.7ZM43.7 7.5L40.5 3.7V1.2H43.7V7.5ZM44.3 1.2H47.8V12.4L44.3 8.2V1.2ZM36 0V14.6L69 54.5L102 15V0H36Z" fill="#491213"/>
<path d="M66.4 46L69 41.8L71.6 46L69 50.2001L66.4 46Z" fill="#23A9E1"/>
<path d="M74.1999 30.6C70.7999 28.6 71.5999 27.1 74.3999 25.7C75.8999 25 79.1999 22.3 80.4999 23.2L74.1999 30.6ZM71.8999 33.1C69.8999 33 67.5999 32.7 65.5999 33.2C66.7999 33.5 69.7999 34.4 66.9999 35.1C67.9999 36.5 69.5999 36.4 70.5999 35.2C70.1999 35 69.8999 34.7 69.5999 34.5C70.6999 34.2 71.6999 33.6 71.8999 33.1ZM73.0999 31.5C72.1999 30.7 71.1999 30.7 70.3999 31.5C69.1999 29.4 64.9999 30.1 62.9999 29.8C64.0999 32.4 72.5999 32.9 73.0999 31.5ZM66.2999 29.3C64.6999 28.8 59.4999 28.9 62.8999 27.5C63.9999 27.1 69.5999 27.6 66.2999 29.3ZM68.2999 26.3C67.7999 25.2 68.6999 23.9 69.9999 24.9C71.1999 25.7 69.3999 26.9 68.2999 26.3ZM65.3999 26.4C63.0999 27.1 60.0999 25.6 63.7999 24.9C66.0999 24.4 68.4999 25.4 65.3999 26.4C65.4999 26.4 65.2999 26.4 65.3999 26.4ZM62.7999 20.2C62.2999 21.8 61.2999 22.1 61.3999 20.2C61.4999 17.9 62.9999 18.5 64.5999 17.6C65.8999 16.9 66.5999 14.2 68.8999 15.8C69.8999 16.5 71.0999 15.9 71.3999 17C71.3999 16.9 68.4999 23.7 70.0999 23.7C66.8999 23.7 68.2999 19.9 69.4999 17.3C68.2999 17.9 66.3999 21.6 67.9999 22.3C67.1999 23.4 64.5999 24.9 63.2999 23.8C62.1999 22.8 62.7999 21.5 62.7999 20.2ZM58.7999 23C53.1999 23 56.9999 14.4 58.8999 14.9C61.0999 15.6 60.7999 23.1 58.7999 23ZM52.5999 14.8C49.9999 14.7 51.0999 12.2 52.8999 11.7C54.5999 11.2 58.0999 12.8 59.2999 13.9C57.4999 14.5 55.1999 14.4 53.1999 14.5C52.9999 12.5 52.4999 13.2 52.5999 14.8Z" fill="#DC6243"/>
<path d="M71.8001 25.8001C68.9001 22.8001 76.1001 23.1001 77.3001 22.0001C78.1001 22.3001 84.3001 16.6001 85.8001 17.0001C84.7001 18.3001 82.4001 22.3001 80.8001 22.3001C79.5001 22.3001 78.2001 22.1001 77.2001 23.0001C75.7001 24.4001 73.3001 25.1001 71.8001 25.8001Z" fill="#F49774"/>
<path d="M72.7001 22.2C71.1001 23.1 69.6001 19.7 72.4001 20C74.2001 20.2 76.1001 19.8 77.8001 20.1C76.5001 21.6 74.7001 22.4 72.7001 22.2Z" fill="#F4B1A4"/>
<path d="M51.1001 20.9001C51.4001 21.3001 51.7001 21.7001 51.6001 22.3001C51.6001 22.7001 51.0001 23.3001 51.4001 23.5001L52.9001 21.7001C52.5001 21.6001 49.4001 17.9001 49.4001 17.5001L47.3001 18.6001C47.4001 19.0001 48.1001 18.6001 48.5001 18.6001C49.0001 18.6001 49.4001 19.0001 49.8001 19.3001C48.7001 20.2001 46.0001 22.6001 45.7001 22.6001C45.6001 22.6001 45.0001 22.2001 45.0001 22.6001C45.0001 22.8001 45.6001 23.3001 45.7001 23.4001L47.1001 25.1001C47.5001 24.9001 47.0001 24.6001 47.2001 24.3001C47.3001 24.1001 50.4001 21.6001 51.1001 20.9001ZM47.7001 16.4001C48.0001 16.3001 48.1001 16.7001 48.3001 16.4001L46.7001 14.5001C46.5001 14.2001 46.2001 13.9001 46.2001 14.5001C46.3001 14.9001 42.2001 18.2001 42.0001 18.3001C41.7001 18.4001 41.5001 18.0001 41.3001 18.4001C41.8001 19.0001 42.2001 19.5001 42.7001 20.1001C42.9001 20.3001 43.0001 20.5001 43.2001 20.7001C43.4001 20.9001 43.3001 20.3001 43.3001 20.3001C43.2001 20.0001 43.6001 19.7001 43.9001 19.5001C44.9001 18.5001 47.4001 16.4001 47.7001 16.4001ZM42.0001 15.8001C40.9001 16.1001 39.6001 15.7001 39.3001 14.5001C38.9001 13.3001 39.7001 12.1001 40.6001 11.4001C41.5001 10.7001 42.9001 10.8001 43.4001 11.9001C43.6001 12.4001 43.5001 13.0001 43.3001 13.5001C43.2001 13.8001 42.9001 14.1001 43.3001 14.3001C43.9001 13.6001 44.4001 12.9001 45.0001 12.2001C44.3001 11.8001 44.0001 11.1001 43.5001 10.5001C42.9001 9.80008 42.2001 9.10008 41.2001 9.00008C39.3001 8.70008 37.6001 10.7001 37.4001 12.4001C37.3001 13.3001 37.6001 14.2001 38.2001 15.0001C38.7001 15.6001 39.4001 16.1001 39.8001 16.8001C40.0001 16.9001 41.6001 16.1001 41.9001 16.0001C42.1001 16.0001 42.0001 15.9001 42.0001 15.8001C41.5001 16.0001 42.0001 15.8001 42.0001 15.8001ZM67.5001 39.4001C66.8001 38.9001 64.9001 36.4001 64.5001 35.9001L64.3001 35.6001L64.1 35.7001C64 35.8001 64.2001 36.1001 64.1 36.3001C63.6 37.1001 60.4001 39.5001 60.2001 39.7001C59.8001 39.9001 59.4001 39.6001 59.2001 39.9001C59.7001 40.5001 61.0001 42.2001 61.2001 42.2001C61.5001 42.2001 61.3001 41.7001 61.3001 41.6001C61.4001 41.4001 63 40.0001 63.6 39.5001C63.8001 39.3001 64 39.8001 64.2 40.0001C64.4 40.3001 64.5001 40.7001 64.4001 41.0001C64.3001 41.2001 63.9 41.6001 64.2 41.8001C64.6 41.3001 65.7001 40.0001 65.9001 39.8001C66.1001 39.6001 65.5 39.8001 65.6 39.7001C65.4 39.8001 65.1001 39.9001 64.9001 39.7001C64.8001 39.7001 64.2001 39.0001 64.3001 38.9001C64.6001 38.7001 64.9001 38.3001 65.3001 38.2001C65.9001 38.1001 66.3001 39.2001 66.4001 39.6001C66.5001 40.0001 66.5001 40.4001 66.3001 40.7001C66.2001 41.0001 66.0001 41.2001 66.3001 41.3001L67.7 39.4001C67.7 39.5001 67.6001 39.5001 67.5001 39.4001C67.4001 39.4001 67.6001 39.5001 67.5001 39.4001ZM58.3001 30.5001C57.6 30.5001 56.9001 30.8001 56.3001 31.3001C54.9001 32.5001 54.7001 34.6001 55.8001 36.1001C57.1 37.8001 59.2001 38.0001 60.9001 36.8001C62.3001 35.6001 62.5001 33.5001 61.4001 32.0001C60.6001 31.0001 59.4001 30.5001 58.3001 30.5001ZM59.5001 31.9001C60.4001 31.8001 61 32.7001 60.6 33.7001C60.2001 34.7001 59.2001 35.7001 58.2001 36.1001C57.0001 36.6001 56.2001 35.6001 56.7001 34.4001C57.1001 33.4001 58.1 32.4001 59.1 32.0001C59.2001 32.0001 59.3001 31.9001 59.5001 31.9001ZM56.7001 27.3001C57.0001 27.3001 57.3001 27.7001 57.5001 27.3001L56.1 25.6001C55.7001 25.8001 56.1001 26.0001 56.0001 26.2001C55.8001 26.5001 54.3001 26.7001 53.9001 26.8001C54.0001 26.4001 54.5001 25.1001 54.7001 25.0001C55.1001 24.7001 55.3001 25.3001 55.5001 24.9001L53.7001 22.8001C53.5001 22.6001 53.3001 22.1001 53.1001 22.4001C53.1001 22.4001 53.1001 23.4001 53.0001 23.5001C52.9001 23.7001 52.4001 25.9001 51.8001 26.4001C51.5001 26.7001 50.3001 27.7001 50.0001 27.8001C49.7001 27.9001 49.5001 27.4001 49.2001 27.8001L50.8001 29.7001C50.9001 29.8001 51.2001 30.3001 51.3001 30.3001C51.6001 30.4001 51.3001 29.7001 51.4001 29.6001C51.5001 29.3001 53.0001 27.8001 53.7001 27.7001C54.6001 27.5001 55.7001 27.2001 56.7001 27.3001C56.9001 27.3001 56.5001 27.3001 56.7001 27.3001ZM80.9001 34.0001C81.0001 34.4001 81.1001 34.9001 81.0001 35.3001C80.9001 35.9001 80.4001 37.2001 79.6001 36.8001C78.8001 36.4001 78.2001 35.7001 77.5001 35.1001C78.0001 34.5001 78.5001 34.0001 79.4001 34.3001C79.6001 34.4001 79.8001 34.3001 79.6001 34.1001C79.3001 33.9001 77.6001 32.8001 77.5001 32.9001C77.3001 33.1001 77.8001 33.5001 77.6001 33.9001C77.5001 34.2001 77.2001 34.4001 77.0001 34.7001C76.5001 34.3001 75.8001 33.9001 76.3001 33.2001C76.7001 32.8001 77.1001 32.4001 77.7001 32.3001C78.1001 32.2001 78.9001 32.6001 79.0001 32.2001C78.3001 31.9001 77.6001 31.5001 76.9001 31.2001C77.0001 31.7001 74.7001 34.1001 74.2001 34.7001C74.1001 34.8001 73.8001 35.1001 73.8001 35.2001C73.8001 35.5001 74.2001 35.3001 74.2001 35.3001C74.5 35.2001 78.6001 38.6001 78.7001 38.9001C78.8 39.1001 78.6001 39.3001 78.7001 39.4001C78.7001 39.4001 78.8001 39.5001 78.9001 39.5001C79.2001 39.2001 81.8001 35.6001 82.4001 35.5001C81.9001 34.7001 81.4001 33.9001 80.9001 33.1001C80.5001 33.3001 80.8001 33.8001 80.9001 34.0001ZM76.9001 38.4001C75.6001 37.5001 73.3001 39.2001 72.9001 39.4001C72.2001 39.7001 71.7001 39.0001 72.1001 38.4001C72.4001 37.9001 73.0001 37.6001 73.6001 37.6001C73.8001 37.6001 74.5001 37.7001 74.5001 37.6001C74.6001 37.5001 74.6001 37.5001 74.5001 37.4001C73.9001 37.0001 73.4001 36.6001 72.8001 36.3001C72.7001 37.0001 71.9001 37.4001 71.5001 37.9001C71.0001 38.5001 70.5001 39.2001 70.5001 39.9001C70.5001 40.6001 70.9001 41.3001 71.6001 41.6001C72.3001 42.0001 73.1001 41.7001 73.8001 41.3001C74.2001 41.0001 74.6001 40.7001 75.0001 40.5001C75.6001 40.2001 76.5001 40.5001 76.3001 41.3001C76.1001 42.0001 75.4001 42.6001 74.7001 42.8001C74.3 42.9001 73.9001 42.9001 73.5001 42.7001C73.2001 42.6001 72.9001 42.2001 72.7001 42.6001L75.0001 44.2001C75.1001 43.7001 75.3 43.5001 75.7001 43.2001C76.2001 42.8001 76.6001 42.3001 77.0001 41.8001C77.8001 40.9001 78.1001 39.3001 76.9001 38.4001ZM94.5001 10.3001C94.5001 10.4001 94.5001 10.4001 94.5001 10.3001L93.6001 11.3001L92.8001 12.3001C92.6001 12.5001 92.5001 12.6001 92.8001 12.8001C93.3001 12.5001 96.3001 17.6001 96.1001 18.3001C95.6001 18.5001 91.6001 15.0001 91.5001 14.8001C91.5001 14.7001 91.7001 14.1001 91.4001 14.2001C91.3001 14.2001 90.9001 14.8001 90.8001 14.9001L90.2001 15.6001C90.4001 15.9001 90.5001 15.6001 90.8001 15.6001C91.0001 15.7001 92.0001 16.5001 92.3001 16.7001C91.8001 16.7001 90.6001 16.8001 90.4001 16.8001C89.8001 16.9001 90.1001 16.4001 89.7001 16.2001L88.2001 18.0001L87.3001 19.0001C87.3001 19.0001 87.3001 19.0001 87.3001 19.1001C87.5001 19.3001 87.4001 19.2001 87.7001 19.1001C88 19.0001 92.0001 22.3001 92.1001 22.5001C92.3001 22.8001 92.0001 23.1001 92.4001 23.3001L93.6001 21.9001C93.7001 21.8001 93.7001 21.8001 93.6001 21.8001C93.3001 21.6001 93.3001 21.9001 92.9001 21.9001C92.6001 21.8001 90.0001 19.7001 89.1001 18.9001L94.4001 18.7001C94.6001 18.7001 95.1001 19.3001 95.1001 19.5001C95.0001 19.7001 94.8001 19.9001 95.1001 20.0001C95.4001 19.6001 95.7001 19.3001 96.0001 18.9001L96.1001 18.7001C96.2001 18.7001 96.2001 18.6001 96.2001 18.5001L96.3001 18.4001C96.6001 18.1001 97.5001 17.1001 97.4001 17.0001C97.1001 16.7001 97.0001 17.3001 96.6001 17.0001C96.4001 16.8001 95.8 15.8001 95.7001 15.6001C95.5 15.3001 96.1001 15.0001 96.3001 14.9001C96.8001 14.6001 98.4001 14.1001 98.6001 15.1001C98.6001 15.3001 98.4001 15.5001 98.5001 15.6001C98.5001 15.6001 98.6001 15.8001 98.7001 15.7001L100.8 13.1001C100.7 13.0001 100.7 13.0001 100.6 12.9001C100.1 13.4001 95.1001 11.4001 94.8001 11.1001C94.7001 10.9001 94.7001 10.3001 94.5001 10.3001ZM94.3001 12.9001C95.1001 13.2001 95.8001 13.5001 96.6001 13.9001C96.4001 14.0001 96.2001 14.1001 96.0001 14.2001C95.8001 14.3001 95.6001 14.5001 95.4001 14.7001L94.3001 12.9001ZM87.7001 20.6001C86.6001 20.5001 85.5 21.0001 84.7001 21.9001C83.5 23.4001 83.6001 25.6001 85.1001 26.8001C86.6001 28.0001 88.8001 27.7001 90.0001 26.3001C91.2001 24.8001 91.1001 22.6001 89.6001 21.4001C89.1001 21.0001 88.4001 20.7001 87.7001 20.6001ZM86.3001 22.2001C86.9001 22.2001 87.6001 22.6001 88.0001 22.9001C88.8001 23.4001 90.2001 24.6001 89.5001 25.6001C89.5001 25.5001 89.6001 25.5001 89.4001 25.7001C88.6001 26.5001 87.2001 25.8001 86.5001 25.2001C85.8001 24.7001 84.5001 23.5001 85.3001 22.5001C85.6001 22.3001 85.9001 22.2001 86.3001 22.2001ZM83.2001 26.5001C82 26.4001 80.8001 27.0001 79.9001 28.1001C79.3001 28.9001 78.6001 29.6001 78.0001 30.4001C78.2001 30.7001 78.5001 30.3001 78.8001 30.5001C79.1001 30.7001 82.9001 33.8001 82.9001 34.0001C83.0001 34.3001 82.7001 34.4001 83.0001 34.6001C83.1001 34.7001 85.9001 31.2001 86.2001 30.6001C86.6001 29.5001 86.3001 28.2001 85.4001 27.4001C85.5001 27.5001 85.6001 27.5001 85.4001 27.4001C84.6001 26.8001 83.9001 26.5001 83.2001 26.5001ZM82.1001 28.1001C82.2001 28.1001 82.3001 28.1001 82.4001 28.1001C83.8001 28.5001 85.8001 30.2001 84.5001 31.7001C84.3001 31.9001 84.5001 31.7001 84.1001 32.1001C83.9001 32.3001 79.9001 29.1001 80.1001 28.9001C80.5001 28.4001 81.4001 28.0001 82.1001 28.1001Z" fill="white"/>
</g>
<defs>
<clipPath id="clip0_18711_905">
<rect width="138" height="70" fill="white"/>
</clipPath>
</defs>
</svg>

<svg xmlns="http://www.w3.org/2000/svg" width="138" height="70" fill="none"><g clip-path="url(#a)"><path fill="#81B3D3" d="M138 0H0l59.5 65.7a12.5 12.5 0 0 0 19 0L138 0Z"/><path fill="#23A9E1" d="m36.7.5 32.1 37.9 32-37.7L36.7.5Z"/><path fill="#fff" d="M61.1 14.7h17.3c-1.3-.8-4.4-4.6-6-3.2-.1.1-4.9-5.7-8-2.9-2.7 2.5-4-.3-7 1.6-3.6 2.4 2 3.7 3.7 4.5Zm26.7-3.5-9.8.1c3.9-4.5 5.6-4 9.8-.1Z"/><path fill="#491213" d="M97.6 3.6V1.2h2.1l-2.1 2.4ZM48.4 13c.1.1 2.4-2.4 6.1-4.9 3.4-2.3 8.6-4.9 14.4-4.9a27 27 0 0 1 14.5 5c3.7 2.4 6 4.8 6.1 4.9l-2.5 3c-4.5.6-7.7 3.9-12.1 3.2-2.2-.4-2.3-1.6-2.9-2.9-.5-1-1.3-.8-2.3-1.2-.9-.4-1.5-1.1-3.4-.7-1.6.4-1.8 2.9-3.9 2.8-1.1-.1-1.2-1.6-2.8-3.6-4.1-4.9-7.8-4.3-10.4.2l-.8-.9ZM40 1.2v1.9l-1.6-1.9H40Zm53.9 0h3.2v3L93.9 8V1.2Zm-4.1 11.4V1.2h3.5v7.4l-3.5 4Zm-.5-10.4v9.9a26 26 0 0 0-3.6-3l3.6-6.9Zm-4.1-.3v6.8l-1.5-1-2.2-1.3 3.7-4.5Zm-4.4-.2V6l-3.1-1.5 3.1-2.8Zm.6-.5h3.7l-3.7 4.6V1.2Zm4.3 0h3.6l-3.6 7.1V1.2Zm-8.8 0h3.9l-3.5 3.1-.3-.1-.1-3Zm-.5.4V4c-1-.4-2-.7-3.1-.9l3.1-1.5Zm-4.2 0v1.3L70 2.6l2.2-1Zm-6.8 0 2.2 1c-.8 0-1.5.1-2.2.3V1.6Zm-4.1 0 3.1 1.5c-1.1.2-2.1.5-3.1.9V1.6Zm3.6 1.2-3.3-1.6h3.3v1.6Zm3.5-.4-2.8-1.3h2.8v1.3Zm.7-1.2H72l-2.9 1.3V1.2Zm3.7 0H76l-3.2 1.6V1.2ZM60.4 4.3l-3.5-3.1h3.9v3l-.4.1Zm-3.6-2.6 3.1 2.7c-1.1.4-2.1.9-3.1 1.5V1.7Zm-4.3.2 3.6 4.5c-1.3.7-2.5 1.5-3.6 2.4V1.9Zm-4.2.3 3.6 7c-1.3 1-2.5 2-3.6 3.2V2.2Zm3.7 6-3.6-7.1H52v7.1Zm4.3-2.5-3.7-4.6h3.7v4.6ZM43.7 7.5l-3.2-3.8V1.2h3.2v6.3Zm.6-6.3h3.5v11.2l-3.5-4.2v-7ZM36 0v14.6l33 39.9L102 15V0H36Z"/><path fill="#23A9E1" d="m66.4 46 2.6-4.2 2.6 4.2-2.6 4.2-2.6-4.2Z"/><path fill="#DC6243" d="M74.2 30.6c-3.4-2-2.6-3.5.2-4.9 1.5-.7 4.8-3.4 6.1-2.5l-6.3 7.4Zm-2.3 2.5c-2-.1-4.3-.4-6.3.1 1.2.3 4.2 1.2 1.4 1.9 1 1.4 2.6 1.3 3.6.1l-1-.7c1.1-.3 2.1-.9 2.3-1.4Zm1.2-1.6c-.9-.8-1.9-.8-2.7 0-1.2-2.1-5.4-1.4-7.4-1.7 1.1 2.6 9.6 3.1 10.1 1.7Zm-6.8-2.2c-1.6-.5-6.8-.4-3.4-1.8 1.1-.4 6.7.1 3.4 1.8Zm2-3c-.5-1.1.4-2.4 1.7-1.4 1.2.8-.6 2-1.7 1.4Zm-2.9.1c-2.3.7-5.3-.8-1.6-1.5 2.3-.5 4.7.5 1.6 1.5.1 0-.1 0 0 0Zm-2.6-6.2c-.5 1.6-1.5 1.9-1.4 0 .1-2.3 1.6-1.7 3.2-2.6 1.3-.7 2-3.4 4.3-1.8 1 .7 2.2.1 2.5 1.2 0-.1-2.9 6.7-1.3 6.7-3.2 0-1.8-3.8-.6-6.4-1.2.6-3.1 4.3-1.5 5-.8 1.1-3.4 2.6-4.7 1.5-1.1-1-.5-2.3-.5-3.6Zm-4 2.8c-5.6 0-1.8-8.6.1-8.1 2.2.7 1.9 8.2-.1 8.1Zm-6.2-8.2c-2.6-.1-1.5-2.6.3-3.1 1.7-.5 5.2 1.1 6.4 2.2-1.8.6-4.1.5-6.1.6-.2-2-.7-1.3-.6.3Z"/><path fill="#F49774" d="M71.8 25.8c-2.9-3 4.3-2.7 5.5-3.8.8.3 7-5.4 8.5-5-1.1 1.3-3.4 5.3-5 5.3-1.3 0-2.6-.2-3.6.7-1.5 1.4-3.9 2.1-5.4 2.8Z"/><path fill="#F4B1A4" d="M72.7 22.2c-1.6.9-3.1-2.5-.3-2.2 1.8.2 3.7-.2 5.4.1a5.9 5.9 0 0 1-5.1 2.1Z"/><path fill="#fff" d="M51.1 20.9c.3.4.6.8.5 1.4 0 .4-.6 1-.2 1.2l1.5-1.8a20 20 0 0 1-3.5-4.2l-2.1 1.1c.1.4.8 0 1.2 0 .5 0 .9.4 1.3.7-1.1.9-3.8 3.3-4.1 3.3-.1 0-.7-.4-.7 0 0 .2.6.7.7.8l1.4 1.7c.4-.2-.1-.5.1-.8l3.9-3.4Zm-3.4-4.5c.3-.1.4.3.6 0l-1.6-1.9c-.2-.3-.5-.6-.5 0 .1.4-4 3.7-4.2 3.8-.3.1-.5-.3-.7.1l1.4 1.7.5.6c.2.2.1-.4.1-.4a23.4 23.4 0 0 1 4.4-3.9Zm-5.7-.6c-1.1.3-2.4-.1-2.7-1.3-.4-1.2.4-2.4 1.3-3.1.9-.7 2.3-.6 2.8.5.2.5.1 1.1-.1 1.6-.1.3-.4.6 0 .8l1.7-2.1c-.7-.4-1-1.1-1.5-1.7-.6-.7-1.3-1.4-2.3-1.5-1.9-.3-3.6 1.7-3.8 3.4-.1.9.2 1.8.8 2.6.5.6 1.2 1.1 1.6 1.8.2.1 1.8-.7 2.1-.8.2 0 .1-.1.1-.2-.5.2 0 0 0 0Zm25.5 23.6c-.7-.5-2.6-3-3-3.5l-.2-.3-.2.1v.6c-.5.8-3.7 3.2-3.9 3.4-.4.2-.8-.1-1 .2.5.6 1.8 2.3 2 2.3.3 0 .1-.5.1-.6l2.3-2.1c.2-.2.4.3.6.5.2.3.3.7.2 1-.1.2-.5.6-.2.8l1.7-2c.2-.2-.4 0-.3-.1-.2.1-.5.2-.7 0-.1 0-.7-.7-.6-.8.3-.2.6-.6 1-.7.6-.1 1 1 1.1 1.4.1.4.1.8-.1 1.1-.1.3-.3.5 0 .6l1.4-1.9c0 .1-.1.1-.2 0-.1 0 .1.1 0 0Zm-9.2-8.9c-.7 0-1.4.3-2 .8a3.6 3.6 0 0 0-.5 4.8c1.3 1.7 3.4 1.9 5.1.7a3.6 3.6 0 0 0 .5-4.8 4 4 0 0 0-3.1-1.5Zm1.2 1.4c.9-.1 1.5.8 1.1 1.8-.4 1-1.4 2-2.4 2.4-1.2.5-2-.5-1.5-1.7.4-1 1.4-2 2.4-2.4l.4-.1Zm-2.8-4.6c.3 0 .6.4.8 0l-1.4-1.7c-.4.2 0 .4-.1.6-.2.3-1.7.5-2.1.6a6 6 0 0 1 .8-1.8c.4-.3.6.3.8-.1l-1.8-2.1c-.2-.2-.4-.7-.6-.4l-.1 1.1c-.1.2-.6 2.4-1.2 2.9a11 11 0 0 1-1.8 1.4c-.3.1-.5-.4-.8 0l1.6 1.9.5.6c.3.1 0-.6.1-.7.1-.3 1.6-1.8 2.3-1.9.9-.2 2-.5 3-.4.2 0-.2 0 0 0ZM80.9 34c.1.4.2.9.1 1.3-.1.6-.6 1.9-1.4 1.5-.8-.4-1.4-1.1-2.1-1.7.5-.6 1-1.1 1.9-.8.2.1.4 0 .2-.2a12 12 0 0 0-2.1-1.2c-.2.2.3.6.1 1l-.6.8c-.5-.4-1.2-.8-.7-1.5.4-.4.8-.8 1.4-.9.4-.1 1.2.3 1.3-.1l-2.1-1c.1.5-2.2 2.9-2.7 3.5l-.4.5c0 .3.4.1.4.1.3-.1 4.4 3.3 4.5 3.6v.5l.2.1c.3-.3 2.9-3.9 3.5-4l-1.5-2.4c-.4.2-.1.7 0 .9Zm-4 4.4c-1.3-.9-3.6.8-4 1-.7.3-1.2-.4-.8-1 .3-.5.9-.8 1.5-.8h.9c.1-.1.1-.1 0-.2l-1.7-1.1c-.1.7-.9 1.1-1.3 1.6-.5.6-1 1.3-1 2s.4 1.4 1.1 1.7c.7.4 1.5.1 2.2-.3l1.2-.8c.6-.3 1.5 0 1.3.8-.2.7-.9 1.3-1.6 1.5-.4.1-.8.1-1.2-.1-.3-.1-.6-.5-.8-.1l2.3 1.6c.1-.5.3-.7.7-1l1.3-1.4c.8-.9 1.1-2.5-.1-3.4Zm17.6-28.1c0 .1 0 .1 0 0l-.9 1-.8 1c-.2.2-.3.3 0 .5.5-.3 3.5 4.8 3.3 5.5a20 20 0 0 1-4.6-3.5c0-.1.2-.7-.1-.6l-.6.7-.6.7c.2.3.3 0 .6 0l1.5 1.1-1.9.1c-.6.1-.3-.4-.7-.6L88.2 18l-.9 1v.1c.2.2.1.1.4 0 .3-.1 4.3 3.2 4.4 3.4.2.3-.1.6.3.8l1.2-1.4c.1-.1.1-.1 0-.1-.3-.2-.3.1-.7.1-.3-.1-2.9-2.2-3.8-3l5.3-.2c.2 0 .7.6.7.8-.1.2-.3.4 0 .5l.9-1.1.1-.2.1-.2.1-.1c.3-.3 1.2-1.3 1.1-1.4-.3-.3-.4.3-.8 0a11 11 0 0 1-.9-1.4c-.2-.3.4-.6.6-.7.5-.3 2.1-.8 2.3.2 0 .2-.2.4-.1.5 0 0 .1.2.2.1l2.1-2.6-.2-.2c-.5.5-5.5-1.5-5.8-1.8-.1-.2-.1-.8-.3-.8Zm-.2 2.6 2.3 1-.6.3-.6.5-1.1-1.8Zm-6.6 7.7c-1.1-.1-2.2.4-3 1.3-1.2 1.5-1.1 3.7.4 4.9 1.5 1.2 3.7.9 4.9-.5 1.2-1.5 1.1-3.7-.4-4.9a4 4 0 0 0-1.9-.8Zm-1.4 1.6c.6 0 1.3.4 1.7.7.8.5 2.2 1.7 1.5 2.7l-.1.1c-.8.8-2.2.1-2.9-.5-.7-.5-2-1.7-1.2-2.7.3-.2.6-.3 1-.3Zm-3.1 4.3c-1.2-.1-2.4.5-3.3 1.6L78 30.4c.2.3.5-.1.8.1.3.2 4.1 3.3 4.1 3.5.1.3-.2.4.1.6.1.1 2.9-3.4 3.2-4a3 3 0 0 0-.8-3.2c.1.1.2.1 0 0-.8-.6-1.5-.9-2.2-.9Zm-1.1 1.6h.3c1.4.4 3.4 2.1 2.1 3.6l-.4.4c-.2.2-4.2-3-4-3.2.4-.5 1.3-.9 2-.8Z"/></g><defs><clipPath id="a"><path fill="#fff" d="M0 0h138v70H0z"/></clipPath></defs></svg>
